X:1
T:[ID 1-137]
T:[ID 1-137]
T:Bezeichnung standardisiert: Drum sag ich noch einmal; Courant Drum frag ich noch einmahl In dieser Quelle auch als: Corante
T:Urheber unbekannt Datum in der hier transkribierten schriftlichen Quelle: 1775
C:Urheber unbekannt
C:Datum in der hier transkribierten schriftlichen Quelle: 1775
L:1/8
M:2/4
K:D
V:1 treble 
V:1
 A | dAFD | d2 f2 | edcB | cAAA | dAFD | d2 f2 | f(e/f/) gf | e3 :: e | eccc | dBBB | cAAA | %13
 BG E2 | ABcd | efge | fe/d/ e/a/e/c/ | d3 :| %18

